!!!!SEGMENT: pl-wtm--r-234-m_moniuszko-stanislaw--krakowiaczek.krn
!!!cenid: 18xx:1640
!!!COM: Moniuszko, Stanisław
!!!COM-rismid: pe30008351
!!!CDT: 1819/05/05-1872/06/04
!!!CNT: Polish
!!!OTL: Krakowiaczek
!!!PDT:
!!!AGN: Secular
!!!SMS-siglum: PL-Wtm
!!!SMS-shelfmark: R 234/M
!!!SMS-shelfwork: W
!!!SMS-variant:
!!!SMS-altvar:
!!!NIFC-rismid: 1001063768
!!!URL-scan: http://repozytorium.nifc.pl/skany/pl-wtm-nut--r229m
!!!ONB-nifc:
**kern	**kern	**dynam	**kern	**text	**dynam
*part2	*part2	*part2	*part1	*part1	*part1
*staff3	*staff2	*	*staff1	*staff1	*
*I"	*I"[Fortepian]	*	*I"[Głos]	*	*
*	*I'pf	*	*I'V	*	*
*clefF4	*clefG2	*	*clefG2	*	*
*k[b-]	*k[b-]	*	*k[b-]	*	*
*M2/4	*M2/4	*	*M2/4	*	*
=1	=1	=1	=1	=1	=1
!!LO:TX:t=P:problem:4\ 8\ 16\ left or right:global
(8qBBn/	.	.	.	.	.
*^	*	*	*	*	*
!	!	!LO:TX:a:i:t=Allegretto.	!	!	!	!
!	!	!	!LO:DY:t=mf.	!	!	!
!	!	!	!	!LO:TX:a:i:t=No 15. Krakowiaczek.	!	!
8C/)	4FF\|	8A/ 8f	mf	2r	.	.
4C/	.	4A/ 4f	.	.	.	.
.	4FF\	.	.	.	.	.
8C/	.	8A/ 8f	.	.	.	.
=2!|:	=2!|:	=2!|:	=2!|:	=2!|:	=2!|:	=2!|:
(8qBBn/	.	.	.	.	.	.
8C/)	4FF\	8A/ 8f	.	2r	.	.
4C/	.	4A/ 4f	.	.	.	.
.	4FF\	.	.	.	.	.
8C/	.	8A/ 8f	.	.	.	.
=3	=3	=3	=3	=3	=3	=3
*rep	*rep	*rep	*	*	*	*
(8qBBn/	.	.	.	.	.	.
8C/)	4FF\	8A/ 8f	.	8.f/	We-	.
4C/	.	4A/ 4f	.	.	.	.
.	.	.	.	16f/	-so-	.
.	4FF\	.	.	8e/	-ły	.
8C/	.	8A/ 8f	.	8d/	szczę-	.
*Xrep	*Xrep	*Xrep	*	*	*	*
=4	=4	=4	=4	=4	=4	=4
*rep	*rep	*rep	*	*	*	*
(8qBBn/	.	.	.	.	.	.
8C/)	4FF\	8A/ 8f	.	8c/	-śli-	.
!	!	!	!	!LO:TX:a:i:u:t=S. Wasilewskiego.	!	!
4C/	.	4A/ 4f	.	4.f/	-wy	.
.	4FF\	.	.	.	.	.
8C/	.	8A/ 8f	.	.	.	.
*Xrep	*Xrep	*Xrep	*	*	*	*
=5	=5	=5	=5	=5	=5	=5
(8qBBn/	.	.	.	.	.	.
8C/)	4FF\	8B-/ 8e	.	8.g/	Kra-	.
4C/	.	4B-/ 4e	.	.	.	.
.	.	.	.	16a/	-ko-	.
.	4FF\	.	.	8.cc/	-wia-	.
8C/	.	8B-/ 8e	.	.	.	.
.	.	.	.	16b-/	-czek	.
!!LO:LB:g=original
=6	=6	=6	=6	=6	=6	=6
(8qBBn/	.	.	.	.	.	.
8C/)	4FF\	8A/ 8f	.	8a/	ci	.
4C/	.	4A/ 4f	.	4cc/	ja!	.
.	4FF\	.	.	.	.	.
8C/	.	[8A/L [<8fL	.	8r	.	.
*v	*v	*	*	*	*	*
=7	=7	=7	=7	=7	=7
&(8qE/	.	.	.	.	.
(4FF/ 4F&)	8A/J] 8fJ]	.	8.a/	a	.
.	4A/ 4f	.	.	.	.
.	.	.	16a/	mój	.
8qC#X/	.	.	.	.	.
8D/L	.	.	8g/	ko-	.
8GG/J	8G/ 8Bn 8f	.	8f/	-nik	.
!!linebreak:original
=8	=8	=8	=8	=8	=8
4C/	8r	.	8e/	si-	.
.	4G/ 4c 4e	.	4.g/	-wy	.
4BBn/	.	.	.	.	.
.	8G/ 8d 8g	.	.	.	.
=9	=9	=9	=9	=9	=9
.	.	.	(8qg/	.	.
4AA/	8r	.	8.f#X/)	raź-	.
.	8c/L 8d	.	.	.	.
.	.	.	16e/	-no	.
4D/	8c/ 8d 8f#X	.	8f#/	się	.
.	8c/J 8d 8f#	.	8d/	u-	.
=10	=10	=10	=10	=10	=10
(4GG/)	8g/	.	8g/	-wi-	.
.	4Bn^/ 4d 4g	.	4g/	-ja.	.
8G\)	.	.	.	.	.
8r	8B/ 8d 8g	.	8r	.	.
!!LO:LB:g=original
=11	=11	=11	=11	=11	=11
!	!	!	!LO:TX:a:i:t=piu mosso. Allegro.	!	!
8CC/ 8C	8r	.	8.c/	u-	.
8r	8G<:/ 8c: 8e: 8g:	.	.	.	.
.	.	.	16d/	-wi-	.
8GGG/ 8GG	8r	.	8.e/	-jaj	.
8r	8G<:/ 8c: 8e: 8g:	.	.	.	.
.	.	.	16f/	się	.
=12	=12	=12	=12	=12	=12
8CC/ 8C	8r	.	8g/	raź-	.
8r	8G<:/ 8c: 8e: 8g:	.	8e/	-no	.
8GGG/ 8GG	8r	.	4cc^\	bież,	.
8r	8G<:/ 8c: 8e: 8g:	.	.	.	.
=13	=13	=13	=13	=13	=13
8DD/ 8D	8r	.	8g/	ko-	.
8r	8G<:/ 8Bn<: 8f: 8g:	.	24g/LL	-py-	.
.	.	.	24a/	.	.
.	.	.	24g/JJ	.	.
8GGG/ 8GG	8r	.	8f/	-tka-	.
8r	8G<:/ 8B<: 8d: 8f: 8g:	.	8d/	-mi	.
=14	=14	=14	=14	=14	=14
8CC/ 8C	8r	.	8e/	o-	.
8r	8G<:/ 8c: 8e: 8g:	.	8g/	-gnia	.
8GG/	8r	.	4c/	krzesz!	.
8r	8G<:/ 8c: 8e: 8g:	.	.	.	.
=15	=15	=15	=15	=15	=15
8C\L|	8.c/L 8.cc	f	2r	.	.
8E\J 8G|	.	.	.	.	.
.	16d/K 16dd	.	.	.	.
!LO:TX:a:t=P:problem:mixedbeam	!	!	!	!	!
8GG/L|	8.e/ 8.ee	.	.	.	.
8E\J 8G|	.	.	.	.	.
.	16f/Jk 16ff	.	.	.	.
!!LO:LB:g=original
=16	=16	=16	=16	=16	=16
8C\L	8g\L 8gg|	.	2r	.	.
8E\J 8G	8cc\J 8ee|	.	.	.	.
8C\L	4cc^^\ 4ee 4gg 4ccc	.	.	.	.
8E\J 8G	.	.	.	.	.
=17	=17	=17	=17	=17	=17
*^	*^	*	*	*	*
*	*2\right	*Xtuplet	*	*	*	*	*
8r	2GG^\	8r	8r	.	2r	.	.
(<8E/L 8G	.	(<24gg/LL	4cc\	>	.	.	.
.	.	24aa/	.	.	.	.	.
.	.	24gg/JJ	.	.	.	.	.
8D/) 8A	.	8ff/L)	.	]	.	.	.
8G/J	.	8f'/J 8bn 8dd	8ryy	.	.	.	.
=18	=18	=18	=18	=18	=18	=18	=18
8r	2C\	2cc/	8r	.	2r	.	.
8G/L 8c	.	.	8e\L 8g	.	.	.	.
8G/ 8c	.	.	8e\ 8g	.	.	.	.
8G/J 8c	.	.	8e\J 8g	.	.	.	.
*v	*v	*	*	*	*	*	*
*	*v	*v	*	*	*	*
=19	=19	=19	=19	=19	=19
!	!	!	!LO:TX:a:i:t=tempo 1mo	!	!
(<8qqBBBn/	.	.	.	.	.
2CC\) 2C	8r	p	(8.b-\	Cza-	f
*	*tremolo	*	*	*	*
.	8F</ 8B-X< 8d 8fL	.	.	.	.
.	.	.	16a\	-pecz-	.
.	8F/ 8B-X 8d 8f	.	8b-\	-ka	.
.	8F/ 8B-X 8d 8fJ	.	8dd\)	czer-	.
*	*Xtremolo	*	*	*	*
=20	=20	=20	=20	=20	=20
8qBBBn/	.	.	.	.	.
2CC\ 2C	8r	.	8cc\	-wo-	.
*	*tremolo	*	*	*	*
.	8G</ 8c 8eL	.	4.g/	-na	.
.	8G/ 8c 8e	.	.	.	.
.	8G/ 8c 8eJ	.	.	.	.
*	*Xtremolo	*	*	*	*
=21	=21	=21	=21	=21	=21
(8qBBn/	.	.	.	.	.
4C\)	8r	.	8.a/	na	.
.	8A</ 8c 8f	.	.	.	.
.	.	.	16g/	gło-	.
(8qBB/	.	.	.	.	.
4C\)	8r	.	8f/	-wie	.
.	8Bn</ 8d 8f	.	8d/	mi	.
!!LO:PB:g=original
=22	=22	=22	=22	=22	=22
(8qBB-X/	.	.	.	.	.
2C\)	8r	.	8g/	pło-	.
.	8c/L 8e	.	4c/	-nie	.
.	8c/ 8e	.	.	.	.
.	8c/J 8e 8g	.	8r	.	.
=23	=23	=23	=23	=23	=23
(8qBBBn/	.	.	.	.	.
2CC/) 2C	8r	.	8.b-\	po-	.
*	*tremolo	*	*	*	*
.	8B-X/ 8d 8f 8b-XL	.	.	.	.
.	.	.	16a\	-ka-	.
.	8B-X/ 8d 8f 8b-X	.	8b-\	-zu-	.
.	8B-X/ 8d 8f 8b-XJ	.	8dd\	-je	.
*	*Xtremolo	*	*	*	*
=24	=24	=24	=24	=24	=24
(8qBBBn/	.	.	.	.	.
2CC/) 2C	8r	.	8cc\	o-	.
*	*tremolo	*	*	*	*
.	8c/ 8e 8g 8b-XL	.	4g/	-na	.
.	8c/ 8e 8g 8b-X	.	.	.	.
.	8c/ 8e 8g 8b-XJ	.	8r	.	.
*	*Xtremolo	*	*	*	*
=25	=25	=25	=25	=25	=25
8qBBn/	.	.	.	.	.
4C\	8r	.	8.a/	że	.
.	4c/ 4f 4a	.	.	.	.
.	.	.	16g/	mi	.
(<8qF#X/	.	.	.	.	.
4C\ 4G)	.	.	8a/	go-	.
.	8d/ 8fn 8bn	.	8bn\	-re	.
=26	=26	=26	=26	=26	=26
*^	*^	*	*	*	*
!	!	!	!	!	!	!	!LO:DY:a
8r	2C\	2cc/	8r	.	4.cc\	w_ło-	<
*tremolo	*	*	*	*	*	*	*
8qBn/	.	.	.	.	.	.	.
8qc/	.	.	.	.	.	.	.
*	*	*	*tremolo	*	*	*	*
8G/ 8cL	.	.	8e\L	<	.	.	.
8G/ 8c	.	.	8e\	.	.	.	.
8G/ 8cJ	.	.	8e\J	[	8cc\	-nie.	[[
*Xtremolo	*	*	*Xtremolo	*	*	*	*
*v	*v	*	*	*	*	*	*
=27	=27	=27	=27	=27	=27	=27
*	*	*2\right	*	*	*	*
*	*	*tremolo	*	*	*	*
!	!	!	!	!LO:TX:a:i:t=piu lento.\ncon anima	!	!
!	!	!	!LO:DY:t=f.	!	!	!LO:DY:t=f.
8AAA/ 8AA	8.dd/L	8c\ 8d 8f#XL	f	8.dd\	Go-	f
*tremolo	*	*	*	*	*	*
8D\ 8AL	.	8c\ 8d 8f#X	.	.	.	.
.	16cc/K	.	.	16cc\	-re	.
8D\ 8A	8b-/	8c\ 8d 8f#X	.	8b-\	ser-	.
8D\ 8AJ	8a/J	8c\ 8d 8f#XJ	.	8a\	-ce	.
*Xtremolo	*Xtremolo	*Xtremolo	*	*	*	*
*	*v	*v	*	*	*	*
!!LO:LB:g=original
=28	=28	=28	=28	=28	=28
8BBB-/ 8BB-	8g/	.	8g/	pę-	.
.	8qg/	.	.	.	.
8r	8B-/ 8d 8b-	.	8b-/	-dzi	.
!	!LO:N:vis=4	!	!	!	!
8GGG/ 8GG	8d^/	.	4d/	koń	.
8r	8B-\ 8g	.	.	.	.
=29	=29	=29	=29	=29	=29
*^	*	*	*	*	*
.	(>8qCC/	8qf/	.	8qf/	.	.
*	*	*^	*	*	*	*
8r	2C\)	8.e/L	8r	.	8.e/	a	.
8G/L	.	.	8B-\L	.	.	.	.
.	.	16d/K	.	.	16d/	dzie-	.
8G/	.	8e/	8B-\	.	8e/	-wczy-	.
8E/J 8G	.	(8c/J	8B-\J	.	8c/	-na	.
*v	*v	*	*	*	*	*	*
*	*v	*v	*	*	*	*
=30	=30	=30	=30	=30	=30
8FF/ 8F	8f/L)	.	8f/	klas-	.
8r	8A/J 8c 8f 8a	.	8a/	-ka	.
8EE/ 8E	8r	.	4cc^^\	w_dłoń,	.
8r	8c/ 8g 8b- 8cc	.	.	.	.
=31	=31	=31	=31	=31	=31
*	*^	*	*	*	*
*	*ped	*	*	*	*	*
!	!	!	!LO:DY:t=f.	!	!	!
8FFF/ 8FF	8f\ 8a 8cc 8ff/	8ryy	f	8.ff;\	go-	.
16r	16r	16ryy	.	.	.	.
*	*Xtuplet	*	*	*	*	*
(16F\KL 16A	48cc/L	[>16f\KL	.	16cc\	-re	.
.	48dd/	.	.	.	.	.
*	*Xped	*	*	*	*	*
.	48cc/J	.	.	.	.	.
8G\ 8B-	8b-/L	8f\]	.	8b-\	ser-	.
8A\J 8c	8a/J	8f\J	.	8a\	-ce	.
=32	=32	=32	=32	=32	=32	=32
8B-\L) 8d	8g/L	8ryy	.	8g/	pę-	.
8B-\J|	16g/L	8d\	.	16g/LL	-dzi	.
.	16b-/JJ	.	.	16b-/JJ	.	.
4BB-\ 4D 4G 4B-	4d^/	4ryy	.	4d/	koń	.
*	*v	*v	*	*	*	*
!!LO:LB:g=original
=33	=33	=33	=33	=33	=33
8c\	8c/ 8f 8a	.	8.c/	a	.
8r	8r	.	.	.	.
.	.	.	32f/LLL	dzie-	.
.	.	.	32a/JJJ	.	.
8C/	8c/ 8e 8g 8cc	.	8.cc;\	-wczy-	.
!	!LO:TX:a:i:t=ralent.	!	!	!	!
8r	8r	.	.	.	.
!	!	!	!LO:TX:a:i:t=ralent.	!	!
.	.	.	16b-\	-na	.
=34	=34	=34	=34	=34	=34
8C/L	8c/L 8f 8a|	.	8a/	kla-	.
8C/J	8c/J 8e 8g|	.	8g/	-ska	.
[<4FF;/ 4C	[4A;/ [4f	.	[4f;/	w_dłoń.	.
=35	=35	=35	=35	=35	=35
!	!LO:TX:a:i:t=tempo 1mo	!	!	!	!
8qBBn/	.	.	.	.	.
*^	*	*	*	*	*
8C/	4FF\]	8A/] 8c 8f]	.	8f/]	.	.
4C/	.	4A/ 4c 4f	.	8r	.	.
.	4FF\	.	.	4r	.	.
[>8C/	.	8A/ 8c 8f	.	.	.	.
*v	*v	*	*	*	*	*
=36:|!	=36:|!	=36:|!	=36:|!	=36:|!	=36:|!
4FF/ 4C]	4f\ 4a 4cc 4ff	sf	2r	.	.
4ryy	4r	.	.	.	.
!!LO:PB:g=original
==	==	==	==	==	==
*-	*-	*-	*-	*-	*-
!!!system-decoration: [(s1)][(s2,s3)]
!!!RDF**kern: < = below
!!!RDF**kern: > = above
!!!ENC: Marta Chmielewska
!!!END: 2021-04-14
!!!ENC:Berenika Jozajtis
!!!END:2021-03-28
!!!RDF**kern: | = vertical stroke
